assets/icons/qvision/event_available.svg

<svg xmlns="http://www.w3.org/2000/svg" height="24" viewBox="0 0 24 24" width="24"><path d="M0 0h24v24H0z" fill="none"/><path d="M16.53 11.06L15.47 10l-4.88 4.88-2.12-2.12-1.06 1.06L10.59 17l5.94-5.94zM19 3h-1V1h-2v2H8V1H6v2H5c-1.11 0-1.99.9-1.99 2L3 19c0 1.1.89 2 2 2h14c1.1 0 2-.9 2-2V5c0-1.1-.9-2-2-2zm0 16H5V8h14v11z"/></svg>

<svg width="24" height="24" viewBox="0 0 24 24" fill="none" xmlns="http://www.w3.org/2000/svg">
<g clip-path="url(#clip0_147_5950)">
<path d="M16.53 11.06L15.47 10L10.59 14.88L8.47 12.76L7.41 13.82L10.59 17L16.53 11.06ZM19 3H18V1H16V3H8V1H6V3H5C3.89 3 3.01 3.9 3.01 5L3 19C3 20.1 3.89 21 5 21H19C20.1 21 21 20.1 21 19V5C21 3.9 20.1 3 19 3ZM19 19H5V8H19V19Z" fill="#323232"/>
</g>
<defs>
<clipPath id="clip0_147_5950">
<rect width="24" height="24" fill="white"/>
</clipPath>
</defs>
</svg>
